Numix/16/status/indicator-keyboard-Ru-4.svg

<?xml version="1.0" encoding="UTF-8" standalone="no"?>
<svg
   xmlns:dc="http://purl.org/dc/elements/1.1/"
   xmlns:cc="http://creativecommons.org/ns#"
   xmlns:rdf="http://www.w3.org/1999/02/22-rdf-syntax-ns#"
   xmlns:svg="http://www.w3.org/2000/svg"
   xmlns="http://www.w3.org/2000/svg"
   xmlns:sodipodi="http://sodipodi.sourceforge.net/DTD/sodipodi-0.dtd"
   xmlns:inkscape="http://www.inkscape.org/namespaces/inkscape"
   viewBox="0 0 16 16"
   id="svg2"
   version="1.1"
   inkscape:version="0.91 r13725"
   sodipodi:docname="indicator-keyboard-Ru-4.svg">
  <metadata
     id="metadata14">
    <rdf:RDF>
      <cc:Work
         rdf:about="">
        <dc:format>image/svg+xml</dc:format>
        <dc:type
           rdf:resource="http://purl.org/dc/dcmitype/StillImage" />
      </cc:Work>
    </rdf:RDF>
  </metadata>
  <defs
     id="defs12" />
  <sodipodi:namedview
     pagecolor="#ffffff"
     bordercolor="#666666"
     borderopacity="1"
     objecttolerance="10"
     gridtolerance="10"
     guidetolerance="10"
     inkscape:pageopacity="0"
     inkscape:pageshadow="2"
     inkscape:window-width="459"
     inkscape:window-height="369"
     id="namedview10"
     showgrid="false"
     inkscape:zoom="14.75"
     inkscape:cx="8"
     inkscape:cy="8"
     inkscape:window-x="65"
     inkscape:window-y="24"
     inkscape:window-maximized="0"
     inkscape:current-layer="svg2" />
  <path
     style="fill:#ececec;fill-opacity:1"
     d="M 1.5996094 0 C 0.71320937 2.9605947e-16 0 0.71320937 0 1.5996094 L 0 14.400391 C 2.9605947e-16 15.286791 0.71320937 16 1.5996094 16 L 14.400391 16 C 15.286791 16 16 15.286791 16 14.400391 L 16 1.5996094 C 16 0.71320937 15.286791 0 14.400391 0 L 1.5996094 0 z M 3.1328125 4.8046875 C 3.9908125 4.8046875 4.6363594 4.9670156 5.0683594 5.2910156 C 5.5063594 5.6150156 5.7246094 6.0944688 5.7246094 6.7304688 C 5.7246094 7.1984687 5.6014687 7.5678906 5.3554688 7.8378906 C 5.1094688 8.1078906 4.7848125 8.3038281 4.3828125 8.4238281 C 4.4788125 8.5438281 4.6019531 8.7042031 4.7519531 8.9082031 C 4.9079531 9.1122031 5.0684688 9.3379844 5.2304688 9.5839844 C 5.3924688 9.8239844 5.5510312 10.075844 5.7070312 10.339844 C 5.8630313 10.603844 5.9955156 10.855703 6.1035156 11.095703 L 5.4453125 11.095703 C 5.3193125 10.855703 5.18125 10.616953 5.03125 10.376953 C 4.88725 10.136953 4.7380312 9.9055939 4.5820312 9.6835938 C 4.4320312 9.4555937 4.284625 9.2447344 4.140625 9.0527344 L 3.7617188 8.5488281 C 3.5697187 8.5668281 3.3795 8.5761719 3.1875 8.5761719 L 2.1777344 8.5761719 L 2.1777344 11.095703 L 1.5664062 11.095703 L 1.5664062 4.9765625 C 1.7824063 4.9165625 2.0342656 4.8736094 2.3222656 4.8496094 C 2.6162656 4.8196094 2.8868125 4.8046875 3.1328125 4.8046875 z M 3.2050781 5.3359375 C 2.9770781 5.3359375 2.7755625 5.3452813 2.6015625 5.3632812 C 2.4335625 5.3752812 2.2917344 5.3864375 2.1777344 5.3984375 L 2.1777344 8.0546875 L 3.0253906 8.0546875 C 3.3073906 8.0546875 3.5741719 8.0415781 3.8261719 8.0175781 C 4.0781719 7.9875781 4.2964219 7.9278906 4.4824219 7.8378906 C 4.6684219 7.7418906 4.8158281 7.6075938 4.9238281 7.4335938 C 5.0318281 7.2595938 5.0859375 7.0226562 5.0859375 6.7226562 C 5.0859375 6.4466563 5.0318281 6.2171094 4.9238281 6.0371094 C 4.8158281 5.8571094 4.674 5.7172344 4.5 5.6152344 C 4.326 5.5072344 4.1264375 5.4344375 3.8984375 5.3984375 C 3.6764375 5.3564375 3.4450781 5.3359375 3.2050781 5.3359375 z M 7.03125 6.4433594 L 7.6171875 6.4433594 L 7.6171875 8.8632812 C 7.6171875 9.1932813 7.6395 9.4731719 7.6875 9.7011719 C 7.7355 9.9291721 7.813875 10.115766 7.921875 10.259766 C 8.029875 10.397766 8.1679375 10.498453 8.3359375 10.564453 C 8.5099375 10.624453 8.7207969 10.654297 8.9667969 10.654297 C 9.2427969 10.654297 9.4815469 10.639375 9.6855469 10.609375 C 9.8895469 10.579375 10.020218 10.553297 10.074219 10.529297 L 10.074219 6.4433594 L 10.658203 6.4433594 L 10.658203 10.933594 C 10.484203 10.981594 10.251032 11.035703 9.9570312 11.095703 C 9.6630313 11.155703 9.3029531 11.185547 8.8769531 11.185547 C 8.5289531 11.185547 8.2379062 11.135203 8.0039062 11.033203 C 7.7699062 10.931203 7.5795469 10.787563 7.4355469 10.601562 C 7.2915469 10.415563 7.1870938 10.189781 7.1210938 9.9257812 C 7.0610938 9.6617812 7.03125 9.3707344 7.03125 9.0527344 L 7.03125 6.4433594 z M 13.533203 8.8417969 L 13.929688 8.8417969 L 13.929688 11.486328 L 14.433594 11.486328 L 14.433594 11.796875 L 13.929688 11.796875 L 13.929688 12.896484 L 13.556641 12.896484 L 13.556641 11.796875 L 11.71875 11.796875 L 11.71875 11.5625 C 11.78895 11.3753 11.886919 11.163688 12.011719 10.929688 C 12.140419 10.695687 12.285412 10.456638 12.445312 10.210938 C 12.605213 9.9652374 12.777644 9.7261874 12.964844 9.4921875 C 13.152044 9.2542875 13.342103 9.0367969 13.533203 8.8417969 z M 13.556641 9.2695312 C 13.420141 9.4099313 13.281025 9.5706063 13.140625 9.7539062 C 13.000225 9.9372063 12.865028 10.129225 12.736328 10.328125 C 12.611528 10.523125 12.495919 10.719069 12.386719 10.917969 C 12.277519 11.116869 12.185428 11.306928 12.111328 11.486328 L 13.556641 11.486328 L 13.556641 9.2695312 z "
     id="path4" />
</svg>

<svg xmlns="http://www.w3.org/2000/svg" viewBox="0 0 16 16">
 <path d="m 1.6 0 c -0.886 0 -1.6 0.713 -1.6 1.6 l 0 12.801 c 0 0.886 0.713 1.6 1.6 1.6 l 12.801 0 c 0.886 0 1.6 -0.713 1.6 -1.6 l 0 -12.801 c 0 -0.886 -0.713 -1.6 -1.6 -1.6 l -12.801 0 z m 1.533 4.805 c 0.858 0 1.504 0.162 1.936 0.486 c 0.438 0.324 0.656 0.803 0.656 1.439 c 0 0.468 -0.123 0.837 -0.369 1.107 c -0.246 0.27 -0.571 0.466 -0.973 0.586 c 0.096 0.12 0.219 0.28 0.369 0.484 c 0.156 0.204 0.317 0.43 0.479 0.676 c 0.162 0.24 0.321 0.492 0.477 0.756 c 0.156 0.264 0.288 0.516 0.396 0.756 l -0.658 0 c -0.126 -0.24 -0.264 -0.479 -0.414 -0.719 c -0.144 -0.24 -0.293 -0.471 -0.449 -0.693 c -0.15 -0.228 -0.297 -0.439 -0.441 -0.631 l -0.379 -0.504 c -0.192 0.018 -0.382 0.027 -0.574 0.027 l -1.01 0 l 0 2.52 l -0.611 0 l 0 -6.119 c 0.216 -0.06 0.468 -0.103 0.756 -0.127 c 0.294 -0.03 0.565 -0.045 0.811 -0.045 z m 0.072 0.531 c -0.228 0 -0.43 0.009 -0.604 0.027 c -0.168 0.012 -0.31 0.023 -0.424 0.035 l 0 2.656 l 0.848 0 c 0.282 0 0.549 -0.013 0.801 -0.037 c 0.252 -0.03 0.47 -0.09 0.656 -0.18 c 0.186 -0.096 0.333 -0.23 0.441 -0.404 c 0.108 -0.174 0.162 -0.411 0.162 -0.711 c 0 -0.276 -0.054 -0.506 -0.162 -0.686 c -0.108 -0.18 -0.25 -0.32 -0.424 -0.422 c -0.174 -0.108 -0.374 -0.181 -0.602 -0.217 c -0.222 -0.042 -0.453 -0.063 -0.693 -0.063 z m 3.826 1.107 l 0.586 0 l 0 2.42 c 0 0.33 0.022 0.61 0.07 0.838 c 0.048 0.228 0.126 0.415 0.234 0.559 c 0.108 0.138 0.246 0.239 0.414 0.305 c 0.174 0.06 0.385 0.09 0.631 0.09 c 0.276 0 0.515 -0.015 0.719 -0.045 c 0.204 -0.03 0.335 -0.056 0.389 -0.08 l 0 -4.086 l 0.584 0 l 0 4.49 c -0.174 0.048 -0.407 0.102 -0.701 0.162 c -0.294 0.06 -0.654 0.09 -1.08 0.09 c -0.348 0 -0.639 -0.05 -0.873 -0.152 c -0.234 -0.102 -0.424 -0.246 -0.568 -0.432 c -0.144 -0.186 -0.248 -0.412 -0.314 -0.676 c -0.06 -0.264 -0.09 -0.555 -0.09 -0.873 l 0 -2.609 z m 6.502 2.398 l 0.396 0 l 0 2.645 l 0.504 0 l 0 0.311 l -0.504 0 l 0 1.1 l -0.373 0 l 0 -1.1 l -1.838 0 l 0 -0.234 c 0.07 -0.187 0.168 -0.399 0.293 -0.633 c 0.129 -0.234 0.274 -0.473 0.434 -0.719 c 0.16 -0.246 0.332 -0.485 0.52 -0.719 c 0.187 -0.238 0.377 -0.455 0.568 -0.65 z m 0.023 0.428 c -0.137 0.14 -0.276 0.301 -0.416 0.484 c -0.14 0.183 -0.276 0.375 -0.404 0.574 c -0.125 0.195 -0.24 0.391 -0.35 0.59 c -0.109 0.199 -0.201 0.389 -0.275 0.568 l 1.445 0 l 0 -2.217 z" style="fill:#ececec;fill-opacity:1"/>
</svg>
